X: 1
T: Con Carthy's
M: 12/8
L: 1/8
R: slide
K: Bmin
B2A Bcd B2A F2A|B2A B2d e3 d2c|
B2A Bcd B2A F2G|1 A2F d2F F2E E2A:|2 A2F d2F F2E E2e||
|:f2e d2c B2A F2A|f2e d2f e2d e3|
f2e d2c B2A F2G|1 A2F d2F F2E E2e:|2 A2F d2F F2E E2A||
